X:1
T:Title
%%score { ( 1 3 ) | ( 2 4 ) }
L:1/8
M:3/4
K:Bb
V:1 treble nm="Grand Piano"
V:3 treble 
V:2 bass 
V:4 bass 
V:1
 z2 z2[Q:1/4=100] [B,D]>[CE] | [DF]3 [B,D] [EG]>[DF] | [DF]2 [B,D]2 [B,D]>[DF] | E3 E F>E | %4
[M:2/4] D4 |[M:1/4] D>[CE] |[M:3/4] [DF]3 [B,D] [EG]>[DF] | [DF]2 [DB]2 [DB]>[Fd] | %8
 [=Ec]3 [Ec] [Ec]>[Ec] |[M:2/4] c4 |[M:4/4] z2 d6 | z2 A2 [EG]4 | z2 c6 | z2 F6 | z2 d6 | %15
 e>d c2 B,>B, B,>B, | z2 F6 |[M:3/4] d>c B->[DB-] [EB-]>[EB-] | [DB]2 z2 z2 |] %19
V:2
 z2 z2 [B,,F,]>[B,,F,] | [B,,B,]3 [B,,F,] [B,,B,]>[B,,B,] | [B,,B,]2 [B,,F,]2 [B,,F,]>[B,,B,] | %3
 [F,A,C]3 [F,A,C] [F,A,D]>[F,A,C] |[M:2/4] [B,,F,B,]4 |[M:1/4] [B,,F,B,]>[B,,F,] | %6
[M:3/4] [B,,B,]3 [B,,F,] [B,,B,]>[B,,B,] | [B,,B,]2 [B,,B,]2 [B,,B,]>[B,,B,] | %8
 [C,G,]3 [C,G,] [C,G,]>[C,G,] |[M:2/4] [F,A,E]4 |[M:4/4][K:treble] z2 F6[K:bass] | z2 E2 z4 | %12
 z2 E6 | E>E z z/ F,/ F,>F, F,2 | z2 F6[K:bass] | F>F G2[K:bass] E,>E, E,>E, | z2 D6 | %17
[M:3/4] [F,B,F]>[F,E] B,,->[B,,-F,] [B,,-G,]>[B,,-G,] | [B,,F,]2 z2 z2 |] %19
V:3
 x6 | x6 | x6 | x6 |[M:2/4] x4 |[M:1/4] x2 |[M:3/4] x6 | x6 | x6 |[M:2/4] x4 | %10
[M:4/4] F>B z2 B,>B, B,>c | B>D z z/ B,/ B,>B, B,>B, | G>G z2 G,>G, G,>B | A>G z z/ A,/ A,>A, A,2 | %14
 F>B z2 B,>B, B,>[Fd] | z4 [EG]4 | G>G z2 B,>B, B,>e |[M:3/4] z2 D2 z2 | x6 |] %19
V:4
 x6 | x6 | x6 | x6 |[M:2/4] x4 |[M:1/4] x2 |[M:3/4] x6 | x6 | x6 |[M:2/4] x4 | %10
[M:4/4][K:treble] D>D z2[K:bass] B,,>B,, B,,>E | D>B, z z/ E,/ E,>E, E,>E, | E>E z2 C,>C, C,>E | %13
 x8 | D>D z2[K:bass] B,,>B,, B,,>[B,,B,] | x4[K:bass] x4 | E>E z2 F,>F, F,>[F,CF] | %17
[M:3/4] z2 F,2 z2 | x6 |] %19

